img/icons/instagram.svg

<?xml version="1.0" encoding="UTF-8"?>
<svg width="22px" height="22px" viewBox="0 0 22 22" version="1.1" xmlns="http://www.w3.org/2000/svg" xmlns:xlink="http://www.w3.org/1999/xlink">
    <!-- Generator: Sketch 48.2 (47327) - http://www.bohemiancoding.com/sketch -->
    <title>instagram-logo</title>
    <desc>Created with Sketch.</desc>
    <defs></defs>
    <g id="Footer" stroke="none" stroke-width="1" fill="none" fill-rule="evenodd" transform="translate(-1169.000000, -142.000000)" opacity="0.5">
        <g fill="#FFFFFF" fill-rule="nonzero" id="Social-media">
            <g transform="translate(1083.000000, 142.000000)">
                <g id="instagram-logo" transform="translate(86.000000, 0.000000)">
                    <path d="M15.9286652,0 L6.07107452,0 C2.72348606,0 0,2.72361619 0,6.07120465 L0,15.9287954 C0,19.2765139 2.72348606,22 6.07107452,22 L15.9286652,22 C19.2765139,22 22,19.2763838 22,15.9287954 L22,6.07120465 C22.0001301,2.72361619 19.2765139,0 15.9286652,0 Z M20.0481835,15.9287954 C20.0481835,18.2002106 18.2002106,20.0480534 15.9287954,20.0480534 L6.07107452,20.0480534 C3.79978943,20.0481835 1.95194662,18.2002106 1.95194662,15.9287954 L1.95194662,6.07120465 C1.95194662,3.79991956 3.79978943,1.95194662 6.07107452,1.95194662 L15.9286652,1.95194662 C18.2000804,1.95194662 20.0480534,3.79991956 20.0480534,6.07120465 L20.0480534,15.9287954 L20.0481835,15.9287954 Z" id="Shape"></path>
                    <path d="M11.5,6 C8.46725432,6 6,8.46731096 6,11.5001263 C6,14.5328153 8.46725432,17 11.5,17 C14.5327457,17 17,14.5328153 17,11.5001263 C17,8.46731096 14.5327457,6 11.5,6 Z M11.5,15 C9.5701782,15 8,13.4300119 8,11.5001225 C8,9.57011064 9.57005567,8 11.5,8 C13.4299443,8 15,9.57011064 15,11.5001225 C15,13.4300119 13.4298218,15 11.5,15 Z" id="Shape"></path>
                    <path d="M17,4 C16.7372727,4 16.4791818,4.10636364 16.2936364,4.29272727 C16.1071818,4.47818182 16,4.73636364 16,5 C16,5.26281818 16.1072727,5.52090909 16.2936364,5.70727273 C16.4790909,5.89272727 16.7372727,6 17,6 C17.2636364,6 17.5209091,5.89272727 17.7072727,5.70727273 C17.8936364,5.52090909 18,5.26272727 18,5 C18,4.73636364 17.8936364,4.47818182 17.7072727,4.29272727 C17.5218182,4.10636364 17.2636364,4 17,4 Z" id="Shape"></path>
                </g>
            </g>
        </g>
    </g>
</svg>

<svg xmlns="http://www.w3.org/2000/svg" width="22" height="22" viewBox="0 0 22 22"><g fill="#FFF" opacity=".5"><path d="M15.929 0H6.07A6.078 6.078 0 0 0 0 6.071v9.858A6.078 6.078 0 0 0 6.071 22h9.858A6.078 6.078 0 0 0 22 15.929V6.07A6.078 6.078 0 0 0 15.929 0zm4.12 15.929a4.124 4.124 0 0 1-4.12 4.12H6.07a4.124 4.124 0 0 1-4.12-4.12V6.07a4.124 4.124 0 0 1 4.12-4.12h9.858a4.124 4.124 0 0 1 4.12 4.12v9.858z"/><path d="M11.5 6A5.506 5.506 0 0 0 6 11.5c0 3.033 2.467 5.5 5.5 5.5s5.5-2.467 5.5-5.5S14.533 6 11.5 6zm0 9C9.57 15 8 13.43 8 11.5S9.57 8 11.5 8 15 9.57 15 11.5 13.43 15 11.5 15zM17 4a1.004 1.004 0 0 0-1 1 1.006 1.006 0 0 0 1 1c.264 0 .52-.107.707-.293a1.004 1.004 0 0 0 0-1.415A1.004 1.004 0 0 0 17 4z"/></g></svg>
